X:1
T:Oh, Revive Us by Thy Word
T:James McGranahan
T:Oh, Revive Us by Thy Word
T:Public Domain
T:Public Domain
C:James McGranahan
Z:Public Domain
%%score ( 1 2 ) ( 3 4 )
L:1/8
M:3/4
K:G
V:1 treble 
V:2 treble 
V:3 bass 
V:4 bass 
V:1
 [DG][FA] | [GB]3 G [FA][GB] | [DG]2 [B,D]2 [DG][DF] | [CE]3 [EG] [DF][DA] | [DG]4 [DG][FA] | %5
w: 1.~Heav’n- ly|Fa- ther, we Thy|ren, Ga- thered round|our ris- en Lord,|Lift our hearts|
w: 2.~Gra- cious|gales of heav’n- ly|ing In Thy love|to us af- ford;|Let us feel|
w: 3.~Weak and|wear- y in the|flict, “Wrest- ling not|with flesh and blood,”|Help us, Lord,|
w: 4.~With Thy|strength, O Mas- ter,|us; Be our Guide,|and be our Guard:|Fill us with|
 [GB]3 G [FA][GB] | [DG]2 [B,D]2 [DG][DF] | [CE]3 [EG] [DF][DA] | [DG]4 ||"^Refrain" [DB][Fc] | %10
w: in ear- nest plead-|Oh, re- vive us|by Thy Word! *|||
w: Thy Spir- it’s pre-|Oh, re- vive us|by Thy Word! *|||
w: as faint we fal-|Oh, re- vive us|by Thy Word! *|||
w: Thy Ho- ly Spir-|Oh, re- vive us|by Thy Word! *|||
 (d>e) [Gd]2 [Ge][Gd] | (c>d) [Fc]2 [FA][GB] | [Ac]3 [FA] [Gd][Fc] | ([Ec]2 [DB]2) [DG][FA] | %14
w: ||||
w: ||||
w: ||||
w: ||||
 [GB]3 G [FA][GB] | [DG]2 [B,D]2 [DG][DF] | [CE]3 [EG] [DF][DA] | [DG]4 |] %18
w: ||||
w: ||||
w: ||||
w: ||||
V:2
 x2 | x3 G x2 | x6 | x6 | x6 | x3 G x2 | x6 | x6 | x4 || x2 | G2 x4 | F2 x4 | x6 | x6 | x3 G x2 | %15
w: |child-||||ing:||||||||||
w: |bless-||||sence,||||||||||
w: |con-||||ter,||||||||||
w: |gird||||it;||||||||||
 x6 | x6 | x4 |] %18
w: |||
w: |||
w: |||
w: |||
V:3
 [G,B,][G,C] | [G,D]3 [G,B,] [D,C][D,D] | [G,B,]2 G,2 [B,,G,][B,,D,] | [C,G,]3 [C,C] [D,C][D,C] | %4
w: ~ ~|~ ~ ~ ~|~ ~ ~ ~|~ ~ ~ ~|
 [G,,B,]4 [G,B,][G,C] | [G,D]3 [G,B,] [D,C][D,D] | [G,B,]2 G,2 [B,,G,][B,,D,] | %7
w: ~ ~ ~|~ ~ ~ ~|~ ~ ~ ~|
 [C,G,]3 [C,C] [D,C][D,C] | [G,,B,]4 || G,[G,A,] | (B,>C) [G,B,]2 [G,C][G,B,] | %11
w: ~ ~ ~ Send|re-|fresh- ing,|re- * fresh- ing, From|
 (A,>B,) [D,A,]2 [D,D][D,D] | [D,D]3 [D,C] [D,B,][D,A,] | G,4 [G,B,][G,C] | %14
w: pre- * sence, gra- cious|Send re- fresh- ing,|send re- fresh-|
 [G,D]3 [G,B,] [D,C][D,D] | [G,B,]2 G,2 [B,,G,][B,,D,] | [C,G,]3 [C,C] [D,C][D,C] | [G,,B,]4 |] %18
w: And re- vive us|by Thy Word! *|||
V:4
 x2 | x6 | x2 G,2 x2 | x6 | x6 | x6 | x2 G,2 x2 | x6 | x4 || G, x | G,2 x4 | D,2 x4 | x6 | G,4 x2 | %14
w: ||~||||~|||send|Thy|Lord!||ing,|
 x6 | x2 G,2 x2 | x6 | x4 |] %18
w: ||||

